X: 31778
T: Patrick's
R: reel
M: 4/4
K: Dmajor
|:B|AD ~D2 ADBD|AD ~D2 EDB,D|BE ~E BEdE|BE ~E2 BAFB|
ADFD AD ~D2|ADFD ED ~D2|~A,3 B, D2 EG|ABde fed:|
|:B|Ad ~d2 Adfd|Ad ~d2 edBd|eB ~B2 eBgB|eB ~B2 f/e/d Bd|
Adcd A2 fd|Adcd ed ~d2|~e3 f ~d3 B|~A3 e ~f2 d:|

